icons/code-of-conduct-24.svg

<svg xmlns="http://www.w3.org/2000/svg" width="24" height="24" viewBox="0 0 24 24"><path fill-rule="evenodd" d="M2.828 4.328C5.26 1.896 9.5 1.881 11.935 4.317c.024.024.046.05.067.076 1.391-1.078 2.993-1.886 4.777-1.89a6.216 6.216 0 014.424 1.825c.559.56 1.023 1.165 1.34 1.922.318.756.47 1.617.468 2.663 0 2.972-2.047 5.808-4.269 8.074-2.098 2.14-4.507 3.924-5.974 5.009l-.311.23a.752.752 0 01-.897 0l-.312-.23c-1.466-1.085-3.875-2.869-5.973-5.009-2.22-2.263-4.264-5.095-4.27-8.063v.012-.024.012a6.217 6.217 0 011.823-4.596zm8.033 1.042c-1.846-1.834-5.124-1.823-6.969.022a4.713 4.713 0 00-1.382 3.52c0 2.332 1.65 4.79 3.839 7.022 1.947 1.986 4.184 3.66 5.66 4.752a79.983 79.983 0 002.159-1.645l-2.14-1.974a.752.752 0 011.02-1.106l2.295 2.118c.616-.52 1.242-1.08 1.85-1.672l-2.16-1.992a.752.752 0 011.021-1.106l2.188 2.02a18.992 18.992 0 001.528-1.877l-.585-.586-1.651-1.652c-1.078-1.074-2.837-1.055-3.935.043-.379.38-.76.758-1.132 1.126-1.14 1.124-2.96 1.077-4.07-.043-.489-.495-.98-.988-1.475-1.482a.752.752 0 01-.04-1.019c.234-.276.483-.576.745-.893.928-1.12 2.023-2.442 3.234-3.576zm9.725 6.77c.579-1.08.92-2.167.92-3.228.002-.899-.128-1.552-.35-2.08-.22-.526-.551-.974-1.017-1.44a4.71 4.71 0 00-3.356-1.384c-1.66.004-3.25.951-4.77 2.346-1.18 1.084-2.233 2.353-3.188 3.506l-.351.423c.331.332.663.664.993.998a1.375 1.375 0 001.943.03c.37-.365.748-.74 1.125-1.118 1.662-1.663 4.373-1.726 6.06-.045.56.558 1.12 1.12 1.658 1.658l.333.334z"/></svg>

<svg xmlns="http://www.w3.org/2000/svg" width="24" height="24" viewBox="0 0 24 24">
  <defs/>
  <path d="M2.828,4.328 C5.26,1.896 9.5,1.881 11.935,4.317 C11.959,4.341 11.981,4.367 12.002,4.393 C13.393,3.315 14.995,2.507 16.779,2.503 C18.438,2.497 20.031,3.154 21.203,4.328 C21.762,4.888 22.226,5.493 22.543,6.25 C22.861,7.006 23.013,7.867 23.011,8.913 C23.011,11.885 20.964,14.721 18.742,16.987 C16.644,19.127 14.235,20.911 12.768,21.996 L12.457,22.226 C12.191,22.424 11.826,22.424 11.56,22.226 L11.248,21.996 C9.782,20.911 7.373,19.127 5.275,16.987 C3.055,14.724 1.011,11.892 1.005,8.924 C0.951,7.206 1.611,5.542 2.828,4.328 Z M10.861,5.37 C9.015,3.536 5.737,3.547 3.892,5.392 C2.96,6.321 2.459,7.597 2.51,8.912 C2.51,11.244 4.16,13.702 6.349,15.934 C8.296,17.92 10.533,19.594 12.009,20.686 C12.738,20.15 13.458,19.602 14.168,19.041 L12.028,17.067 C11.723,16.785 11.703,16.309 11.985,16.004 C12.267,15.699 12.743,15.679 13.048,15.961 L15.343,18.079 C15.959,17.559 16.585,16.999 17.193,16.407 L15.033,14.415 C14.728,14.133 14.709,13.657 14.991,13.351 C15.272,13.046 15.749,13.027 16.054,13.309 L18.242,15.329 C18.791,14.736 19.301,14.11 19.77,13.452 L19.185,12.866 L17.534,11.214 C16.456,10.14 14.697,10.159 13.599,11.257 C13.22,11.637 12.839,12.015 12.467,12.383 C11.327,13.507 9.507,13.46 8.397,12.34 C7.908,11.845 7.417,11.352 6.922,10.858 C6.645,10.581 6.628,10.137 6.882,9.839 C7.116,9.563 7.365,9.263 7.627,8.946 C8.555,7.826 9.65,6.504 10.861,5.37 Z M20.586,12.14 C21.165,11.06 21.506,9.973 21.506,8.912 C21.508,8.013 21.378,7.36 21.156,6.832 C20.936,6.306 20.605,5.858 20.139,5.392 C19.25,4.501 18.042,4.002 16.783,4.008 C15.123,4.012 13.533,4.959 12.013,6.354 C10.833,7.438 9.78,8.707 8.825,9.86 L8.474,10.283 C8.805,10.615 9.137,10.947 9.467,11.281 C9.995,11.825 10.865,11.839 11.41,11.311 C11.78,10.946 12.158,10.571 12.535,10.193 C14.197,8.53 16.908,8.467 18.595,10.148 C19.155,10.706 19.715,11.268 20.253,11.806 Z"/>
</svg>
